X: 1
T:O'Mahony's
R:reel
H:This is an unusual version.
D:Ceol Tigh Neachtain
Z:id:hn-reel-632
M:C|
K:D
AF~F2 DF~F2|AF~F2 ABde|~f3a bf~f2|e2df eAce|
dBBA BFAF|DAFD ADFA|BGFA Gbag|1 (3fga ec d2dB:|2 (3fga ec d2 (3efg||
|:f2fe fafe|df~f2 af~f2|dFAd fAdf|geed eAce|
f2fe fafe|df~f2 af~f2|~g2fa gbag|1 (3fga ec d2 (3efg:|2 (3fga ec d2fg||
aA~A2 FAde|~f2df bagf|geed edcB|BA^GB Aef=g|
aA~A2 FAde|~f2df bagf|geed edcB|Aafe d2fg|
aA~A2 FA~A2|dA~A2 fA~A2|gAfA eAdB|BA^GB Aef=g|
aA~A2 FA~A2|dA~A2 fA~A2|gAfA eAdB|Aafe d2dB||
"variations"
|:AF~F2 DF~F2|AF~F2 ABde|fdad bdad|gefd edBc|
dBBA BAFE|DAFD ADFA|BGFA Gbag|1 fgef d2dB:|2 fgef d2de||
|:~f3e fafe|df~f2 af~f2|dFAd fAdf|geed egfe|
~f3e fafe|df~f2 af~f2|~g3f gbag|1 fgef d2de:|2 fgef d2fg||
aA~A2 FAde|fAdf bagf|gfed edcB|BA^GB A2f=g|
aA~A2 FAde|fAdf bagf|gfed edcB|Aafe d2fg|
aA~A2 FA~A2|dA~A2 fA~A2|gAfA eAdB|BA^GB A2f=g|
aA~A2 FA~A2|dA~A2 fA~A2|gAfA eAdB|Aafe d2dB||
